lib/logo_tmp/nrk-logo-nrk-klassisk-with-bg.svg

<svg width="130" height="28" viewBox="0 0 130 28" fill="none" xmlns="http://www.w3.org/2000/svg">
<rect width="129.333" height="28" fill="#6B046A"/>
<path d="M6.66663 21V7.00123H11.26V21H6.66663ZM17.5094 9.2292L20.151 21H15.124L11.9697 7.00123H14.7892C15.4357 6.99284 16.063 7.22075 16.5535 7.64208C17.0449 8.04574 17.3824 8.60611 17.5094 9.2292ZM20.8411 21V7.00123H25.4345V21H20.8411ZM28.9038 12.3247C28.4089 12.3296 27.9218 12.2001 27.4946 11.9501C27.073 11.7064 26.7229 11.3562 26.4793 10.9347C26.229 10.5073 26.0995 10.0202 26.1044 9.525C26.0988 9.03283 26.2284 8.54857 26.4793 8.12512C26.7255 7.70811 27.0752 7.36174 27.4946 7.11957C27.922 6.86988 28.4089 6.74039 28.9038 6.74491C29.3959 6.73961 29.8799 6.86921 30.3035 7.11957C30.7187 7.36386 31.0647 7.70995 31.309 8.12512C31.5596 8.54869 31.6892 9.03287 31.6838 9.525C31.6884 10.0201 31.5589 10.5072 31.309 10.9347C31.0673 11.3544 30.7209 11.7043 30.3035 11.9501C29.8799 12.2009 29.3955 12.3306 28.9032 12.3247H28.9038ZM32.3935 21V7.00123H36.9873V21H32.3935ZM42.8027 14.6512C42.8156 14.6648 42.9141 14.8258 43.0983 15.1343C43.2826 15.4427 43.5224 15.8371 43.8179 16.3173C44.1136 16.7973 44.4257 17.3066 44.754 17.8453C45.0824 18.384 45.3913 18.8934 45.6809 19.3734C45.9694 19.8534 46.298 20.3955 46.6666 21H41.6198C41.3041 20.4873 41.0181 20.024 40.7618 19.61C40.5056 19.1959 40.2331 18.749 39.9444 18.2692C39.6551 17.7899 39.369 17.3233 39.0862 16.8693C38.8034 16.4154 38.5604 16.0178 38.3571 15.6765C38.153 15.335 38.0116 15.1049 37.9329 14.9864C37.7379 14.6923 37.6225 14.3526 37.5981 14.0006C37.6176 13.6627 37.7263 13.3361 37.9132 13.0539C37.992 12.9225 38.1366 12.6891 38.3469 12.3539C38.5572 12.0188 38.8036 11.6212 39.0862 11.1611C39.3688 10.7011 39.6549 10.2312 39.9444 9.7514C40.234 9.27163 40.5064 8.8214 40.7618 8.40078C41.0186 7.9806 41.3046 7.51398 41.6198 7.00091H46.6666L42.7629 13.3694C42.6421 13.5585 42.574 13.7764 42.5657 14.0006C42.5787 14.236 42.6609 14.4623 42.8019 14.6512H42.8027Z" fill="white"/>
<path d="M62.616 7.01161H60.154L54.8034 13.1764H54.0681V7.01161H52V20.9956H54.0681V14.6732H54.1376L59.9574 21.0153L62.7739 20.9953L56.097 14.0624L62.616 7.01161Z" fill="#EFB4ED"/>
<path d="M67.4512 19.5476C67.3826 19.5551 67.3136 19.5585 67.2445 19.5577C67.0962 19.5621 66.9486 19.5351 66.8115 19.4786C66.6921 19.4255 66.5898 19.3403 66.5161 19.2324C66.4305 19.1049 66.3734 18.9605 66.3486 18.809C66.3132 18.6075 66.2967 18.4032 66.2994 18.1987V6.12527L64.2904 6.42072V19.0851C64.2821 19.417 64.3355 19.7476 64.448 20.06C64.5424 20.3138 64.6981 20.5405 64.901 20.7198C65.1032 20.8931 65.3423 21.0177 65.6002 21.0842C65.8864 21.1584 66.181 21.1948 66.4766 21.1925C66.6345 21.1925 66.7852 21.1859 66.9297 21.1725C67.0741 21.159 67.2153 21.1396 67.3531 21.1137C67.491 21.0878 67.6059 21.0612 67.6978 21.0349L67.8947 19.4786C67.816 19.4922 67.7372 19.5053 67.6584 19.518C67.5796 19.5307 67.5105 19.5406 67.4512 19.5476Z" fill="#EFB4ED"/>
<path d="M78.4317 19.7548C78.2877 19.768 78.1427 19.7462 78.0089 19.6912C77.8752 19.6363 77.7567 19.5499 77.6635 19.4393C77.4808 19.1238 77.4049 18.7578 77.4469 18.3957L77.4862 14.3384C77.4906 13.913 77.4376 13.4889 77.3287 13.0776C77.2329 12.7171 77.0728 12.3769 76.856 12.0734C76.637 11.7765 76.3586 11.5284 76.0386 11.3447C75.6671 11.1334 75.2651 10.9806 74.847 10.8917C74.3359 10.7812 73.814 10.7284 73.291 10.7341C72.8763 10.7339 72.462 10.7602 72.0506 10.8129C71.6617 10.8617 71.2765 10.9373 70.898 11.0391C70.5471 11.1345 70.2019 11.2497 69.864 11.3841L69.6277 13.0582C69.9559 12.9396 70.2678 12.8411 70.5632 12.7628C70.8587 12.6844 71.1442 12.6188 71.42 12.5658C71.6901 12.514 71.963 12.4778 72.2373 12.4575C72.5063 12.4378 72.7723 12.4279 73.0354 12.4279C73.4369 12.4193 73.8377 12.4657 74.2266 12.5658C74.5105 12.6368 74.7715 12.7792 74.9849 12.9794C75.1749 13.1741 75.3107 13.415 75.3788 13.6783C75.4629 14.0031 75.5028 14.3377 75.4974 14.6732L75.495 15.1676L73.1926 15.3232C72.4052 15.3452 71.6293 15.519 70.9079 15.8353C70.3679 16.0715 69.9018 16.4492 69.5587 16.9284C69.2675 17.3547 69.1129 17.8597 69.1156 18.376C69.1119 18.8604 69.2304 19.3379 69.4603 19.7643C69.7011 20.2025 70.0636 20.5618 70.5041 20.7986C71.0414 21.0781 71.6419 21.2138 72.2472 21.1925C72.8144 21.2057 73.379 21.112 73.9115 20.9165C74.372 20.7362 74.7933 20.4687 75.1523 20.1286C75.2886 19.9978 75.4178 19.86 75.5397 19.7157C75.578 19.9197 75.65 20.1158 75.753 20.296C75.9286 20.5975 76.1985 20.8329 76.5212 20.9657C76.8778 21.1089 77.2596 21.1791 77.6438 21.1722C77.762 21.1722 77.8769 21.1692 77.9885 21.1623C78.0981 21.156 78.2069 21.1396 78.3135 21.1134C78.4185 21.0868 78.5134 21.0639 78.5991 21.0445C78.6762 21.0269 78.7518 21.0039 78.8256 20.9756L79.0422 19.6556C78.9335 19.6931 78.8213 19.7196 78.7074 19.7347C78.616 19.747 78.5239 19.7537 78.4317 19.7548ZM75.1523 18.8684C74.9388 19.0371 74.7076 19.1823 74.463 19.3014C74.2193 19.4201 73.961 19.5063 73.6948 19.5578C73.4191 19.6109 73.1389 19.6373 72.8581 19.6365C72.537 19.6458 72.2177 19.5853 71.9222 19.4593C71.6819 19.3548 71.4793 19.1795 71.3412 18.9567C71.2048 18.7207 71.1366 18.4513 71.1442 18.1788C71.1252 17.8505 71.2153 17.5252 71.4003 17.2534C71.6146 17.0031 71.9052 16.8301 72.2275 16.761C72.7306 16.6424 73.2471 16.5894 73.7638 16.6034H75.4885L75.4796 18.5582C75.3796 18.6709 75.2702 18.7746 75.1523 18.8684Z" fill="#EFB4ED"/>
<path d="M87.1368 16.4655C86.9352 16.2517 86.7029 16.069 86.4475 15.9236C86.1831 15.7724 85.9064 15.6439 85.6203 15.5395C85.4102 15.4739 85.2034 15.4049 84.9999 15.3327C84.7964 15.2605 84.5928 15.1948 84.3893 15.1357C84.1853 15.0767 83.9884 15.0143 83.7984 14.9486C83.6198 14.8879 83.4455 14.8155 83.2765 14.7317C83.1147 14.6456 82.9599 14.5468 82.8136 14.4362C82.6786 14.3345 82.5648 14.2073 82.4788 14.0617C82.3919 13.9123 82.3476 13.7421 82.3505 13.5693C82.3454 13.3795 82.3933 13.192 82.489 13.028C82.5918 12.8667 82.7342 12.7345 82.9026 12.6439C83.1087 12.5307 83.3314 12.4508 83.5624 12.4072C83.8512 12.3519 84.1448 12.3257 84.4388 12.3288C84.5829 12.3288 84.7409 12.3357 84.9113 12.3485C85.0816 12.3613 85.2691 12.3846 85.4729 12.4174C85.6768 12.4502 85.8793 12.4929 86.0834 12.5451C86.2876 12.5973 86.4938 12.657 86.7039 12.7223C86.8984 12.7825 87.089 12.8549 87.2744 12.939L87.4129 11.344C87.1632 11.2389 86.917 11.1469 86.6743 11.0679C86.4317 10.9896 86.1852 10.9238 85.9357 10.8709C85.6921 10.8193 85.4454 10.7831 85.1971 10.7626C84.9536 10.7429 84.7146 10.7331 84.4779 10.7331C83.9339 10.7276 83.3913 10.7904 82.8629 10.9202C82.4112 11.0301 81.9815 11.2166 81.5928 11.4717C81.2401 11.7047 80.952 12.0231 80.7554 12.3974C80.5499 12.8097 80.4484 13.2662 80.46 13.7268C80.4541 14.0586 80.5074 14.3888 80.6176 14.7018C80.7114 14.9642 80.8514 15.2077 81.0312 15.4207C81.2064 15.6216 81.4086 15.7972 81.6319 15.9426C81.8645 16.0953 82.112 16.2239 82.3705 16.3267C82.5145 16.3792 82.6656 16.4316 82.8238 16.4839C82.9814 16.5368 83.1354 16.586 83.2867 16.6316C83.438 16.6773 83.5847 16.7239 83.7298 16.7695C83.8749 16.8152 84.0151 16.8617 84.153 16.9074C84.2908 16.953 84.4254 16.9963 84.5567 17.0357C84.733 17.098 84.9043 17.1737 85.0692 17.2619C85.2136 17.3386 85.349 17.4312 85.4729 17.538C85.5818 17.6334 85.6691 17.7509 85.729 17.8827C85.7888 18.0191 85.8189 18.1667 85.8173 18.3156C85.8243 18.4613 85.7988 18.6067 85.7426 18.7413C85.6864 18.8759 85.6009 18.9962 85.4923 19.0936C85.2485 19.2975 84.9572 19.4365 84.6454 19.4977C84.2801 19.5782 83.907 19.6177 83.5329 19.6155C83.2989 19.614 83.0653 19.5977 82.8334 19.5666C82.5775 19.5338 82.3085 19.4879 82.0262 19.4288C81.7439 19.3697 81.4549 19.2974 81.1595 19.2121C80.8638 19.1268 80.5651 19.0316 80.2634 18.9265L80.3418 20.6006C80.683 20.719 80.9949 20.8142 81.2774 20.8862C81.5599 20.9582 81.8292 21.0207 82.0852 21.0737C82.3318 21.1248 82.5819 21.1578 82.8334 21.1722C83.0763 21.1857 83.3225 21.1924 83.5719 21.1922C84.1214 21.195 84.6696 21.1388 85.207 21.0244C85.6801 20.9285 86.1331 20.752 86.5463 20.5025C86.9187 20.2751 87.2271 19.9567 87.4425 19.5771C87.6678 19.1603 87.7797 18.6915 87.7668 18.2178C87.7752 17.8723 87.7185 17.5284 87.5997 17.2038C87.4938 16.9305 87.3367 16.6799 87.1368 16.4655Z" fill="#EFB4ED"/>
<path d="M96.3739 16.4656C96.1722 16.2518 95.9398 16.0691 95.6845 15.9236C95.42 15.7723 95.1432 15.6438 94.8569 15.5395C94.6468 15.4739 94.4401 15.4049 94.2366 15.3327C94.033 15.2605 93.8295 15.1948 93.6259 15.1358C93.4224 15.0767 93.2255 15.0143 93.0351 14.9486C92.8565 14.8879 92.6822 14.8154 92.5132 14.7317C92.3513 14.6456 92.1965 14.5468 92.0503 14.4362C91.9153 14.3345 91.8017 14.2073 91.7158 14.0617C91.6288 13.9124 91.5844 13.7421 91.5875 13.5693C91.5822 13.3795 91.6301 13.192 91.7256 13.028C91.8282 12.8666 91.9707 12.7343 92.1392 12.6439C92.3453 12.5307 92.568 12.4508 92.799 12.4072C93.0877 12.352 93.3813 12.3257 93.6752 12.3288C93.8197 12.3288 93.9772 12.3357 94.1482 12.3485C94.3193 12.3613 94.5057 12.3846 94.7095 12.4174C94.9134 12.4502 95.1163 12.4929 95.3198 12.5451C95.5234 12.5973 95.7301 12.657 95.9405 12.7224C96.1352 12.7825 96.3259 12.8549 96.5114 12.939L96.6496 11.344C96.3999 11.2389 96.1537 11.1469 95.911 11.0679C95.6684 10.9895 95.4218 10.9237 95.1724 10.8709C94.9287 10.8193 94.682 10.7831 94.4338 10.7626C94.1904 10.7429 93.9508 10.7331 93.7149 10.7331C93.1708 10.7275 92.6283 10.7904 92.0999 10.9202C91.648 11.03 91.2182 11.2165 90.8295 11.4717C90.4768 11.7047 90.1889 12.0231 89.9925 12.3974C89.7865 12.8096 89.685 13.2662 89.697 13.7269C89.691 14.0587 89.7445 14.3888 89.8549 14.7018C89.9483 14.9644 90.0884 15.208 90.2685 15.4207C90.4435 15.6217 90.6457 15.7974 90.8692 15.9426C91.1018 16.0953 91.3493 16.2239 91.6078 16.3267C91.7518 16.3792 91.9028 16.4316 92.0608 16.4839C92.2183 16.5368 92.3723 16.586 92.5237 16.6316C92.675 16.6773 92.822 16.7239 92.9665 16.7695C93.1109 16.8152 93.2521 16.8617 93.3899 16.9074C93.5278 16.953 93.6624 16.9963 93.794 17.0357C93.9701 17.098 94.1412 17.1737 94.3058 17.2619C94.4505 17.3384 94.586 17.431 94.7099 17.538C94.8188 17.6333 94.906 17.7508 94.9656 17.8827C95.026 18.0189 95.0563 18.1666 95.0546 18.3156C95.0616 18.4613 95.0361 18.6068 94.9798 18.7414C94.9235 18.8759 94.8379 18.9963 94.7293 19.0936C94.4855 19.2975 94.1942 19.4365 93.8823 19.4977C93.517 19.5782 93.1439 19.6178 92.7699 19.6155C92.536 19.614 92.3024 19.5977 92.0706 19.5667C91.8146 19.5338 91.5454 19.4879 91.2631 19.4288C90.9808 19.3697 90.6919 19.2975 90.3962 19.2121C90.101 19.1268 89.8024 19.0316 89.5004 18.9265L89.5792 20.6006C89.9201 20.719 90.2319 20.8142 90.5147 20.8862C90.7974 20.9582 91.0666 21.0207 91.3222 21.0737C91.5689 21.1249 91.8191 21.1578 92.0706 21.1722C92.3133 21.1858 92.5595 21.1924 92.8092 21.1922C93.3585 21.1951 93.9064 21.1388 94.4436 21.0244C94.9167 20.9286 95.3698 20.752 95.783 20.5025C96.1555 20.2752 96.4641 19.9567 96.6794 19.5772C96.9049 19.1603 97.0169 18.6916 97.0041 18.2178C97.0124 17.8723 96.9556 17.5283 96.8367 17.2038C96.7309 16.9305 96.5738 16.6799 96.3739 16.4656Z" fill="#EFB4ED"/>
<path d="M101.111 6.62747C100.906 6.50257 100.671 6.43774 100.431 6.44038C100.189 6.43853 99.9505 6.50323 99.7422 6.62747C99.5368 6.74767 99.3643 6.91683 99.2402 7.11986C99.115 7.32408 99.05 7.55954 99.0528 7.79907C99.0509 8.04169 99.1157 8.28016 99.2402 8.48841C99.3606 8.69437 99.5339 8.86438 99.7422 8.9808C99.9526 9.09891 100.19 9.16003 100.431 9.15808C100.67 9.16077 100.904 9.09955 101.111 8.9808C101.313 8.86343 101.48 8.69324 101.594 8.48841C101.712 8.27798 101.773 8.04037 101.771 7.79907C101.774 7.56089 101.712 7.32632 101.594 7.11986C101.476 6.91783 101.31 6.7485 101.111 6.62747Z" fill="#EFB4ED"/>
<path d="M99.3873 20.9953H101.396V10.7535L99.3873 11.0489V20.9953Z" fill="#EFB4ED"/>
<path d="M110.693 16.4656C110.491 16.2517 110.259 16.069 110.003 15.9236C109.739 15.7724 109.462 15.6439 109.176 15.5395C108.966 15.4739 108.759 15.4049 108.556 15.3327C108.352 15.2605 108.149 15.1948 107.945 15.1358C107.741 15.0767 107.544 15.0143 107.354 14.9486C107.175 14.8879 107.001 14.8155 106.832 14.7317C106.67 14.6457 106.515 14.5469 106.369 14.4362C106.234 14.3345 106.12 14.2073 106.035 14.0617C105.948 13.9124 105.903 13.7421 105.906 13.5693C105.901 13.3795 105.949 13.192 106.044 13.028C106.147 12.8666 106.29 12.7343 106.458 12.6439C106.664 12.5307 106.887 12.4508 107.118 12.4072C107.407 12.352 107.7 12.3257 107.994 12.3288C108.138 12.3288 108.296 12.3357 108.467 12.3485C108.638 12.3613 108.825 12.3846 109.028 12.4174C109.232 12.4502 109.435 12.4929 109.639 12.5451C109.842 12.5973 110.049 12.657 110.259 12.7224C110.454 12.7825 110.645 12.8549 110.83 12.939L110.968 11.344C110.719 11.2389 110.472 11.1469 110.23 11.0679C109.987 10.9895 109.741 10.9237 109.491 10.871C109.248 10.8193 109.001 10.7831 108.753 10.7626C108.509 10.7429 108.27 10.7331 108.034 10.7331C107.49 10.7275 106.947 10.7904 106.419 10.9202C105.967 11.03 105.537 11.2165 105.148 11.4717C104.796 11.7047 104.508 12.0232 104.311 12.3974C104.105 12.8096 104.004 13.2662 104.016 13.7269C104.01 14.0587 104.063 14.3888 104.174 14.7018C104.267 14.9644 104.407 15.208 104.587 15.4207C104.762 15.6217 104.965 15.7973 105.188 15.9426C105.421 16.0953 105.668 16.2239 105.927 16.3267C106.071 16.3792 106.222 16.4316 106.38 16.4839C106.538 16.5362 106.692 16.5855 106.842 16.6316C106.993 16.678 107.141 16.724 107.285 16.7695C107.43 16.8151 107.571 16.861 107.709 16.9074C107.847 16.9536 107.981 16.9963 108.113 17.0357C108.289 17.098 108.46 17.1737 108.625 17.2619C108.769 17.3385 108.905 17.4311 109.029 17.538C109.138 17.6332 109.225 17.7508 109.284 17.8827C109.345 18.0189 109.375 18.1666 109.373 18.3156C109.38 18.4613 109.355 18.6067 109.299 18.7413C109.242 18.8759 109.157 18.9962 109.048 19.0936C108.804 19.2974 108.513 19.4364 108.201 19.4977C107.836 19.5782 107.463 19.6178 107.089 19.6155C106.855 19.614 106.621 19.5977 106.389 19.5667C106.133 19.5338 105.864 19.4879 105.582 19.4288C105.3 19.3697 105.011 19.2975 104.715 19.2121C104.42 19.1268 104.121 19.0316 103.819 18.9265L103.898 20.6006C104.239 20.719 104.551 20.8142 104.833 20.8862C105.116 20.9582 105.385 21.0207 105.641 21.0737C105.888 21.1249 106.138 21.1578 106.389 21.1722C106.632 21.1858 106.878 21.1924 107.128 21.1922C107.677 21.195 108.225 21.1388 108.762 21.0244C109.236 20.9285 109.689 20.752 110.102 20.5025C110.475 20.2751 110.783 19.9566 110.998 19.5772C111.224 19.1603 111.336 18.6916 111.323 18.2178C111.331 17.8723 111.274 17.5283 111.156 17.2038C111.05 16.9305 110.893 16.6799 110.693 16.4656Z" fill="#EFB4ED"/>
<path d="M119.774 20.9953H122.374L117.596 15.6117L122.275 10.9504H119.813L116.443 14.6532H115.717V6.125L113.708 6.4204V20.9953H115.717V16.1698H115.75L119.774 20.9953Z" fill="#EFB4ED"/>
</svg>

<svg xmlns="http://www.w3.org/2000/svg" viewBox="0 0 130 28"><path fill="#6B046A" d="M0 0h129.333v28H0z"/><path fill="#fff" d="M6.667 21V7.001h4.593V21H6.667ZM17.509 9.23 20.151 21h-5.027L11.97 7.001h2.82a2.655 2.655 0 0 1 1.764.641c.49.404.828.964.955 1.587ZM20.841 21V7.001h4.593V21h-4.593Zm8.063-8.675a2.779 2.779 0 0 1-2.425-1.39 2.736 2.736 0 0 1-.375-1.41 2.686 2.686 0 0 1 .375-1.4 2.812 2.812 0 0 1 3.825-1.005c.415.244.76.59 1.005 1.005.25.424.38.908.375 1.4.004.495-.125.982-.375 1.41a2.8 2.8 0 0 1-1.006 1.015c-.423.25-.908.38-1.4.375ZM32.394 21V7.001h4.593V21h-4.593Zm10.409-6.349c.013.014.111.175.295.483.185.309.424.703.72 1.183a373.133 373.133 0 0 1 1.863 3.056c.288.48.617 1.022.986 1.627H41.62l-.858-1.39a127.3 127.3 0 0 1-.818-1.34c-.289-.48-.575-.947-.858-1.4a71.148 71.148 0 0 1-.729-1.194 20.758 20.758 0 0 0-.424-.69 2.04 2.04 0 0 1-.335-.985c.02-.338.128-.665.315-.947.079-.132.224-.365.434-.7a206.222 206.222 0 0 0 1.598-2.602c.289-.48.561-.93.817-1.351L41.62 7h5.047l-3.904 6.368c-.12.19-.189.407-.197.632.013.235.095.461.236.65Z"/><path fill="#EFB4ED" d="M62.616 7.012h-2.462l-5.35 6.164h-.736V7.012H52v13.984h2.068v-6.323h.07l5.82 6.342 2.816-.02-6.677-6.933 6.519-7.05ZM67.451 19.548c-.068.007-.137.01-.206.01a1.055 1.055 0 0 1-.434-.08.704.704 0 0 1-.295-.246 1.07 1.07 0 0 1-.167-.423 3.277 3.277 0 0 1-.05-.61V6.125l-2.009.296v12.664a2.68 2.68 0 0 0 .158.975c.094.254.25.48.453.66.202.173.441.298.7.364.285.074.58.11.876.108a4.906 4.906 0 0 0 .876-.078c.138-.026.253-.053.345-.08l.197-1.555-.237.039a5.036 5.036 0 0 1-.207.03ZM78.432 19.755a.897.897 0 0 1-.769-.316 1.693 1.693 0 0 1-.216-1.043l.04-4.058a4.735 4.735 0 0 0-.158-1.26c-.096-.36-.256-.701-.473-1.005a2.663 2.663 0 0 0-.817-.728 4.16 4.16 0 0 0-1.192-.453 7.002 7.002 0 0 0-1.556-.158c-.415 0-.829.026-1.24.079a8.525 8.525 0 0 0-1.153.226c-.35.095-.696.21-1.034.345l-.236 1.674c.328-.118.64-.217.935-.295.296-.079.581-.144.857-.197.27-.052.543-.088.817-.109.27-.02.535-.03.798-.03a4.4 4.4 0 0 1 1.192.139c.283.07.544.213.758.413.19.195.326.436.394.7.084.324.124.659.118.994l-.002.495-2.302.155a6.115 6.115 0 0 0-2.285.512 3.272 3.272 0 0 0-1.35 1.093 2.543 2.543 0 0 0-.442 1.448c-.004.484.114.962.344 1.388.241.439.604.798 1.044 1.035a3.51 3.51 0 0 0 1.743.393 4.524 4.524 0 0 0 1.665-.276 3.84 3.84 0 0 0 1.24-.787c.137-.131.266-.269.388-.413.038.204.11.4.213.58.176.302.445.537.768.67.357.143.739.213 1.123.206.118 0 .233-.003.344-.01.11-.006.219-.022.326-.049.105-.026.2-.05.285-.069a1.67 1.67 0 0 0 .227-.068l.216-1.32a1.72 1.72 0 0 1-.335.079 2.27 2.27 0 0 1-.275.02Zm-3.28-.887a3.784 3.784 0 0 1-.689.433 3.098 3.098 0 0 1-.768.257c-.276.053-.556.08-.837.079-.321.009-.64-.052-.936-.178a1.288 1.288 0 0 1-.58-.502 1.473 1.473 0 0 1-.198-.778 1.491 1.491 0 0 1 .256-.926c.215-.25.505-.423.828-.492a5.99 5.99 0 0 1 1.536-.158h1.725l-.01 1.955c-.1.113-.209.217-.327.31ZM87.137 16.465a2.961 2.961 0 0 0-.69-.541 5.384 5.384 0 0 0-.827-.384c-.21-.066-.417-.135-.62-.207a11.008 11.008 0 0 0-.61-.197c-.205-.06-.402-.122-.592-.187a4.261 4.261 0 0 1-.522-.217 3.473 3.473 0 0 1-.462-.296 1.29 1.29 0 0 1-.335-.374.947.947 0 0 1-.129-.493 1.02 1.02 0 0 1 .139-.541 1.12 1.12 0 0 1 .414-.384 2.23 2.23 0 0 1 .66-.237c.288-.055.582-.081.876-.078a6.366 6.366 0 0 1 1.034.088c.204.033.406.076.61.128.205.052.41.112.62.177.195.06.386.133.571.217l.139-1.595a9.424 9.424 0 0 0-.739-.276 7.405 7.405 0 0 0-.738-.197 5.912 5.912 0 0 0-.739-.108 8.903 8.903 0 0 0-.72-.03 6.495 6.495 0 0 0-1.614.187c-.452.11-.882.297-1.27.552-.353.233-.641.551-.838.925a2.821 2.821 0 0 0-.295 1.33c-.006.332.047.662.158.975.093.262.233.506.413.719.175.2.378.376.6.522.234.152.481.28.74.384.144.052.295.105.453.157.157.053.311.102.463.148.151.045.298.092.443.137.145.046.285.093.423.138.138.046.272.09.404.129.176.062.347.138.512.226.145.077.28.17.404.276.109.095.196.213.256.345.06.136.09.284.088.433a.982.982 0 0 1-.325.778 1.886 1.886 0 0 1-.847.404c-.365.08-.738.12-1.112.117a5.529 5.529 0 0 1-.7-.048 10.4 10.4 0 0 1-.807-.138c-.282-.06-.571-.132-.867-.217-.295-.085-.594-.18-.896-.285l.079 1.674c.341.118.653.213.935.285.283.072.552.135.808.188.247.05.497.084.748.098.243.014.49.02.739.02a7.666 7.666 0 0 0 1.635-.168 4.208 4.208 0 0 0 1.34-.521 2.57 2.57 0 0 0 .895-.926c.226-.417.338-.886.325-1.36a2.755 2.755 0 0 0-.167-1.013 2.303 2.303 0 0 0-.463-.739ZM96.374 16.466a2.969 2.969 0 0 0-.69-.542 5.366 5.366 0 0 0-.827-.384c-.21-.066-.417-.135-.62-.207a10.926 10.926 0 0 0-.611-.197c-.204-.06-.4-.122-.59-.187a4.277 4.277 0 0 1-.523-.217 3.46 3.46 0 0 1-.463-.296 1.288 1.288 0 0 1-.334-.374.944.944 0 0 1-.128-.493 1.02 1.02 0 0 1 .138-.541c.102-.161.245-.294.413-.384a2.23 2.23 0 0 1 .66-.237c.289-.055.582-.081.876-.078a6.383 6.383 0 0 1 1.035.088c.203.033.406.076.61.128.203.052.41.112.62.177.195.06.386.133.571.217l.139-1.595a9.424 9.424 0 0 0-.739-.276 7.359 7.359 0 0 0-.739-.197 5.917 5.917 0 0 0-.738-.108 8.909 8.909 0 0 0-.72-.03 6.49 6.49 0 0 0-1.614.187c-.452.11-.882.296-1.27.552-.353.233-.641.551-.837.925a2.81 2.81 0 0 0-.296 1.33 2.78 2.78 0 0 0 .158.975c.093.262.233.506.413.719.175.2.378.376.601.522.233.152.48.28.739.384a16.032 16.032 0 0 0 .916.305c.151.045.298.092.442.137.145.046.286.093.424.138.138.046.272.09.404.129.176.062.347.138.512.226.145.076.28.169.404.276a1.012 1.012 0 0 1 .345.778.981.981 0 0 1-.326.778 1.886 1.886 0 0 1-.847.404c-.365.08-.738.12-1.112.117a5.544 5.544 0 0 1-.7-.048 10.45 10.45 0 0 1-.807-.138c-.282-.06-.571-.131-.867-.217-.295-.085-.594-.18-.896-.285l.08 1.674c.34.118.652.213.935.285.282.072.552.135.807.188.247.05.497.084.749.098.242.014.489.02.738.02a7.653 7.653 0 0 0 1.635-.168 4.206 4.206 0 0 0 1.339-.521 2.57 2.57 0 0 0 .896-.926c.226-.417.338-.885.325-1.36a2.755 2.755 0 0 0-.167-1.013 2.3 2.3 0 0 0-.463-.738ZM101.111 6.627a1.278 1.278 0 0 0-.68-.187 1.326 1.326 0 0 0-.689.187c-.205.12-.378.29-.502.493-.125.204-.19.44-.187.68-.002.242.063.48.187.688.12.206.294.376.502.493.21.118.448.179.689.177a1.301 1.301 0 0 0 1.163-.67c.118-.21.179-.448.177-.689a1.336 1.336 0 0 0-.177-.68 1.406 1.406 0 0 0-.483-.492ZM99.387 20.995h2.009V10.753l-2.009.296v9.946ZM110.693 16.466a2.958 2.958 0 0 0-.69-.542 5.37 5.37 0 0 0-.827-.384 16.8 16.8 0 0 1-.62-.207 10.935 10.935 0 0 0-.611-.197c-.204-.06-.401-.122-.591-.187a4.237 4.237 0 0 1-.522-.217 3.423 3.423 0 0 1-.463-.296 1.274 1.274 0 0 1-.334-.374.946.946 0 0 1-.129-.493c-.005-.19.043-.377.138-.541.103-.161.246-.294.414-.384a2.23 2.23 0 0 1 .66-.237c.289-.055.582-.081.876-.078a6.394 6.394 0 0 1 1.034.088c.204.033.407.076.611.128.203.052.41.112.62.177.195.06.386.133.571.217l.138-1.595a9.412 9.412 0 0 0-.738-.276 7.325 7.325 0 0 0-.739-.197 5.876 5.876 0 0 0-.738-.108 8.92 8.92 0 0 0-.719-.03 6.488 6.488 0 0 0-1.615.187c-.452.11-.882.296-1.271.552-.352.233-.64.551-.837.925a2.81 2.81 0 0 0-.295 1.33c-.006.332.047.662.158.975.093.262.233.506.413.719.175.2.378.376.601.522.233.152.48.28.739.384a22.599 22.599 0 0 0 .915.305 58.75 58.75 0 0 1 .867.275c.138.047.272.09.404.129.176.062.347.138.512.226.144.076.28.17.404.276a1 1 0 0 1 .344.778.985.985 0 0 1-.325.778 1.889 1.889 0 0 1-.847.404 5.02 5.02 0 0 1-1.112.117 5.556 5.556 0 0 1-.7-.048 10.414 10.414 0 0 1-.807-.138c-.282-.06-.571-.131-.867-.217-.295-.085-.594-.18-.896-.285l.079 1.674c.341.118.653.213.935.285.283.072.552.135.808.188.247.05.497.084.748.098.243.014.489.02.739.02a7.656 7.656 0 0 0 1.634-.168 4.202 4.202 0 0 0 1.34-.521c.373-.228.681-.546.896-.926.226-.417.338-.885.325-1.36a2.78 2.78 0 0 0-.167-1.013 2.301 2.301 0 0 0-.463-.738ZM119.774 20.995h2.6l-4.778-5.383 4.679-4.662h-2.462l-3.37 3.703h-.726V6.125l-2.009.295v14.575h2.009V16.17h.033l4.024 4.825Z"/></svg>
